admin/src/theme/img/safetyequipment/h.svg

<svg width="32" height="32" viewBox="0 0 32 32" xmlns="http://www.w3.org/2000/svg">
  <g fill="none" fill-rule="evenodd">
    <path d="M11.24 30.8571429h9.5257143V32H11.24v-1.1428571Zm2.0971429-24.18857147h5.3314285L16 11.24l-2.6685714-4.57142857h.0057143Zm0 4.57142857h5.3314285L16 15.8114286 13.3314286 11.24h.0057143Zm2.0971428 3.5828571v1.0285715h.5714286l-.5714286-1.0285715Zm0 0v1.0285715h.5714286l-.5714286-1.0285715Zm0 1.0685715h1.1428572v14.9314285h-1.1428572V15.8857143v.0057143Zm1.1428572-1.0285715v.9885715h-.5714286l.5714286-.9885715Z" fill="#EC0E0E" fill-rule="nonzero"/>
    <path d="M0 0h32v32H0z"/>
  </g>
</svg>

<?xml version="1.0" encoding="UTF-8"?>
<svg width="32px" height="32px" viewBox="0 0 32 32" version="1.1" xmlns="http://www.w3.org/2000/svg" xmlns:xlink="http://www.w3.org/1999/xlink">
    <title>D76FCB26-5284-4DC5-A96D-CDE17D6E544E</title>
    <g id="Squat-laskuri" stroke="none" stroke-width="1" fill="none" fill-rule="evenodd">
        <g id="colors_and_typography" transform="translate(-1054.000000, -906.000000)">
            <g id="turvalaite_ikonit" transform="translate(718.000000, 906.000000)">
                <g id="kardinaali_etelä" transform="translate(336.000000, 0.000000)">
                    <path d="M11.24,30.8571429 L20.7657143,30.8571429 L20.7657143,32 L11.24,32 L11.24,30.8571429 Z M13.3371429,6.66857143 L18.6685714,6.66857143 L16,11.24 L13.3314286,6.66857143 L13.3371429,6.66857143 Z M13.3371429,11.24 L18.6685714,11.24 L16,15.8114286 L13.3314286,11.24 L13.3371429,11.24 Z M15.4342857,14.8228571 L15.4342857,15.8514286 L16.0057143,15.8514286 L15.4342857,14.8228571 Z M15.4342857,14.8228571 L15.4342857,15.8514286 L16.0057143,15.8514286 L15.4342857,14.8228571 Z M15.4342857,15.8914286 L16.5771429,15.8914286 L16.5771429,30.8228571 L15.4342857,30.8228571 L15.4342857,15.8857143 L15.4342857,15.8914286 Z M16.5771429,14.8628571 L16.5771429,15.8514286 L16.0057143,15.8514286 L16.5771429,14.8628571 Z" id="Shape" fill="#EC0E0E" fill-rule="nonzero"></path>
                    <rect id="Rectangle" x="0" y="0" width="32" height="32"></rect>
                </g>
            </g>
        </g>
    </g>
</svg>
